src/assets/images/Icons/head-aside.svg

<?xml version="1.0" encoding="UTF-8"?>
<svg width="45px" height="45px" viewBox="0 0 45 45" version="1.1" xmlns="http://www.w3.org/2000/svg" xmlns:xlink="http://www.w3.org/1999/xlink">
    <!-- Generator: Sketch 47.1 (45422) - http://www.bohemiancoding.com/sketch -->
    <title>Group 12 Copy</title>
    <desc>Created with Sketch.</desc>
    <defs></defs>
    <g id="Form-Flows/Comparison" stroke="none" stroke-width="1" fill="none" fill-rule="evenodd">
        <g id="Group-12-Copy" fill="#2B2727">
            <path d="M18.5052273,26.4947727 C18.1716443,26.4947727 17.8600398,26.2830375 17.7461591,25.9494545 C17.7241858,25.8855341 17.0210455,24.0977557 13.7111932,24.0977557 C13.2697432,24.0977557 12.9121875,23.7402 12.9121875,23.29875 C12.9121875,22.8573 13.2697432,22.4997443 13.7111932,22.4997443 C18.2295511,22.4997443 19.2221591,25.3222159 19.2640909,25.4420795 C19.4039182,25.8615562 19.1761977,26.312983 18.7587205,26.4528409 C18.6728267,26.4808074 18.5889324,26.4947881 18.5050381,26.4947881 L18.5052273,26.4947727 Z" id="Fill-1"></path>
            <path d="M26.4932386,26.4871023 C26.4053455,26.4871023 26.3174574,26.4731216 26.2315636,26.4411614 C25.8220739,26.2973403 25.6003364,25.8559057 25.7361801,25.442417 C25.7781273,25.3225636 26.7708733,22.5000818 31.2890778,22.5000818 C31.7305278,22.5000818 32.0880835,22.8576375 32.0880835,23.2990875 C32.0880835,23.7405375 31.7305278,24.0980932 31.2890778,24.0980932 C27.9791744,24.0980932 27.2760494,25.8858716 27.248129,25.9597636 C27.1282756,26.2833597 26.8206597,26.4870818 26.4930494,26.4870818 L26.4932386,26.4871023 Z" id="Fill-2"></path>
            <path d="M19.3039773,28.0932955 C19.3039773,28.5327511 18.9444273,28.8923011 18.5049716,28.8923011 L15.3089489,28.8923011 C14.8694932,28.8923011 14.5099432,28.5327511 14.5099432,28.0932955 C14.5099432,27.6538398 14.8694932,27.2942898 15.3089489,27.2942898 L18.5049716,27.2942898 C18.9444273,27.2942898 19.3039773,27.6538398 19.3039773,28.0932955 Z" id="Fill-3"></path>
            <path d="M25.6960227,28.0932955 C25.6960227,28.5327511 26.0555727,28.8923011 26.4950284,28.8923011 L29.6910511,28.8923011 C30.1305068,28.8923011 30.4900568,28.5327511 30.4900568,28.0932955 C30.4900568,27.6538398 30.1305068,27.2942898 29.6910511,27.2942898 L26.4950284,27.2942898 C26.0555727,27.2942898 25.6960227,27.6538398 25.6960227,28.0932955 Z" id="Fill-4"></path>
            <path d="M20.1027273,35.2840909 C20.5441773,35.2840909 20.901733,35.6416466 20.901733,36.0830966 C20.901733,36.5245466 20.5441773,36.8821023 20.1027273,36.8821023 C19.6612773,36.8821023 19.3037216,36.5245466 19.3037216,36.0830966 C19.3037216,35.6416466 19.6612773,35.2840909 20.1027273,35.2840909 L20.1027273,35.2840909 Z M20.1027273,33.6860795 C18.780392,33.6860795 17.7057102,34.7607614 17.7057102,36.0830966 C17.7057102,37.4054318 18.780392,38.4801136 20.1027273,38.4801136 C21.4250625,38.4801136 22.4997443,37.4054318 22.4997443,36.0830966 C22.4997443,34.7607614 21.4250625,33.6860795 20.1027273,33.6860795 Z" id="Fill-5"></path>
            <path d="M22.5,0.127840909 C9.74607955,0.127840909 0.127840909,9.05880682 0.127840909,20.9019886 C0.127840909,26.0953977 1.84970455,28.0789773 2.19328977,28.4246591 C2.4949125,28.7242875 2.90239773,28.8920761 3.32386364,28.8920761 C3.35981761,28.8920761 3.39577159,28.8900767 3.43173068,28.8880824 C4.15485,40.7752415 9.2505375,44.8722859 22.4999693,44.8722859 C35.7555375,44.8722859 40.8512761,40.7694119 41.568208,28.8701847 C41.604167,28.8741784 41.640121,28.892158 41.676075,28.892158 C42.091558,28.892158 42.501058,28.7303574 42.8066489,28.4247409 C43.1502187,28.0791716 44.8720977,26.095633 44.8720977,20.9020705 C44.8720977,9.05888864 35.2538591,0.127922727 22.4999386,0.127922727 L22.5,0.127840909 Z M22.5,43.2741477 C9.72971591,43.2741477 5.39335227,39.5447727 4.97403409,27.6836932 C5.70513068,26.509142 7.36307386,23.4529773 7.92833523,19.0702841 C9.71411932,20.0211136 12.3747955,20.9019886 16.108108,20.9019886 C20.9440739,20.9019886 24.7353239,19.2460398 27.781517,17.9177216 C30.006767,16.9469489 31.926375,16.1079545 33.686233,16.1079545 C39.1752102,16.1079545 39.9545284,23.94 40.0603807,26.5530682 C39.8806057,39.3233523 35.671858,43.2741482 22.5001534,43.2741482 L22.5,43.2741477 Z M41.6761364,27.2940341 C41.6761364,22.5 40.078125,14.5099432 33.6860795,14.5099432 C28.8920455,14.5099432 24.0980114,19.3039773 16.1079545,19.3039773 C11.3139205,19.3039773 8.11789773,17.7059659 6.51988636,16.1079545 C6.51988636,22.899375 3.32386364,27.2940341 3.32386364,27.2940341 C3.32386364,27.2940341 1.72585227,25.6960227 1.72585227,20.9019886 C1.72585227,9.71590909 10.8526705,1.72585227 22.5,1.72585227 C34.1473295,1.72585227 43.2741477,9.71590909 43.2741477,20.9019886 C43.2741477,25.6960227 41.6761364,27.2940341 41.6761364,27.2940341 Z" id="Fill-6"></path>
        </g>
    </g>
</svg>

<svg width="45" height="45" viewBox="0 0 45 45" xmlns="http://www.w3.org/2000/svg"><title>F57F55F6-D44F-4B13-BE33-74BB765E3E99</title><g fill="#00A4A5" fill-rule="evenodd"><path d="M18.505 26.495a.804.804 0 0 1-.759-.546c-.022-.063-.725-1.851-4.035-1.851a.799.799 0 1 1 0-1.598c4.519 0 5.511 2.822 5.553 2.942a.8.8 0 0 1-.759 1.053zM26.493 26.487a.795.795 0 0 1-.757-1.045c.042-.12 1.035-2.942 5.553-2.942a.799.799 0 1 1 0 1.598c-3.31 0-4.013 1.788-4.04 1.862a.808.808 0 0 1-.756.527zM19.304 28.093c0 .44-.36.8-.799.8h-3.196a.801.801 0 0 1-.8-.8c0-.44.36-.799.8-.799h3.196c.44 0 .799.36.799.8zM25.696 28.093c0 .44.36.8.799.8h3.196c.44 0 .8-.36.8-.8 0-.44-.36-.799-.8-.799h-3.196c-.44 0-.799.36-.799.8zM20.103 35.284a.799.799 0 1 1 0 1.598.799.799 0 0 1 0-1.598zm0-1.598a2.399 2.399 0 0 0-2.397 2.397 2.399 2.399 0 0 0 2.397 2.397 2.399 2.399 0 0 0 2.397-2.397 2.399 2.399 0 0 0-2.397-2.397z"/><path d="M22.5.128C9.746.128.128 9.058.128 20.902c0 5.193 1.722 7.177 2.065 7.523.302.3.71.467 1.13.467.037 0 .073-.002.109-.004C4.155 40.775 9.25 44.872 22.5 44.872c13.256 0 18.351-4.103 19.068-16.002.036.004.072.022.108.022.416 0 .825-.162 1.13-.467.344-.346 2.066-2.33 2.066-7.523C44.872 9.06 35.254.128 22.5.128zm0 43.146c-12.77 0-17.107-3.73-17.526-15.59.731-1.175 2.39-4.231 2.954-8.614 1.786.951 4.447 1.832 8.18 1.832 4.836 0 8.627-1.656 11.674-2.984 2.225-.971 4.144-1.81 5.904-1.81 5.49 0 6.269 7.832 6.374 10.445-.18 12.77-4.388 16.721-17.56 16.721zm19.176-15.98c0-4.794-1.598-12.784-7.99-12.784-4.794 0-9.588 4.794-17.578 4.794-4.794 0-7.99-1.598-9.588-3.196 0 6.791-3.196 11.186-3.196 11.186s-1.598-1.598-1.598-6.392c0-11.186 9.127-19.176 20.774-19.176s20.774 7.99 20.774 19.176c0 4.794-1.598 6.392-1.598 6.392z"/></g></svg>
